X:1
T:Anima miseranda
T:Carlo Milanuzzi
T:Source : Ghirlanda Sacra---Venetia---B.Magni ( Ang.Gardano)---1625. Editor : André Vierendeels (03/12/18) Notes : Original clefs : C1, F4 Note values have been quartered in 3-beat measures Music collected by Leonardo Simonetti Dotted brackets indicate black notes Figures in BC are notated in original print 
T:Anima miseranda
T:©
T:©
T:©
T:©
T:©
T:©
T:©
C:Carlo Milanuzzi
Z:©
%%score 1 { 2 | 3 }
L:1/8
Q:1/4=120
M:2/2
K:C
V:1 treble nm="Soprano" snm="S"
V:2 treble nm="MusicXML Part"
V:3 bass 
V:1
 A3 A A4 | z2 A4 AA | A6 _B2 | E2 E2 z4 | B3 B B4 | c2 cc c4- | c2 d2 ^G2 G2 | z2 AA AGG^F | %8
w: A- ni- ma,|A- ni- ma|mi- se-|ran- da,|A- ni- ma,|A- ni- ma mi-|* se- ran- da,|quae of- fen- dis De- um|
"^-natural" ^FF _B4 BB |"^-natural" B6 A2 | ^G2 G2 z2 AA | A4- AGG^F | ^F2 F2 z2 A>G | B4 B2 z B | %14
w: tu- um, A- ni- ma,|mi- se-|ran- da, quae of-|fen- * dis De- um|tu- um, quid ex-|pe ctans, quid|
 G4 G4 | z GG>F A4 | AABc d4- | d2 B/c/d/c/ B4 | A8 | z AAA A2 AA | AGGF G4 | G4 z BBB | %22
w: spe- ras,|quid trha- is mo-|ram in im- pi- o|_ pec- * * * ca-|to,|non re- for- mi- das hor-|ri- bi- le In- fer-|num? Non re- for-|
 B2 BB ^ccc>e | A4 A4 | z2 D/E/>F/G/ AB/c/ d2 | ^F3 F F4 | z2 E/F/>G/A/ Bc/d/ e2 | ^G3 G G4 | %28
w: mi- das hor- ri- bi- le In-|fer- num?|O _ _ _ _ _ _ _|A- ni- ma,|O _ _ _ _ _ _ _|A- ni- ma|
 ^GGGG G2 GA | B3 B B4 | z2 B2 BBBB | c3 c c2 AA | B<A G<F G<F G<E | FABc d3 d | %34
w: in- si- gni- ta De- i I-|ma- gi- ne,|re- dem- pta Chri- sti|San- gui- ne de- spon-|sa- * ta _ fi- * de _|de do- ta- ta Spi- ri-|
 d2 GG A/G/F/G/ A/B/c/A/ | BG c4 B2 | c2 EE FG A2 | A2 ^G2 A4 |:[M:3/4] E3 F G2 | G3 A ^F2 | %40
w: tu Co- ro- na- * * * * * * *|ta Vir- tu- ti-|bus de- pu- ta- ta cum|An- ge- lis.|Di- li- ge,|di- li- ge|
 G4 G2 | A3 B c2 | c3 d B2 | c4 c2 | z2 E2 E2 | ^F2 F2 A2 | A4 ^G2 | A2 A2 E2 | F2 G2 A2 | E4 D2 | %50
w: Chri- stum,|di- li- ge,|di- li- ge|Chri- stum|à quo|tan- tum di-|lec- ta|es, à quo|tan- tum di-|lec- ta|
[M:4/4] D4 z2 dA | d2 B>A A3 G | G4 z2 eB | e2 c>B B3 A | A4 z2 AE | A2 F>E E3 D | D4 z2 dA | %57
w: es, quae- re,|quae- re quae- ren- tem|te, a- ma,|a- ma, a- man- tem|te, quae- re,|quae- re, quae- ren- tem|te, a- ma,|
 d2 B>A A3 G | G2 GG AGFE | D3 C C2 c2 | B3 B B2 cd | edcB ABcd | B4 A2 AE | ^FFGG G2 F2 | %64
w: a- ma, a- man- tem|te, qui- a i- pse col- lo-|ca- bit te cum|An- ge- lis an- te|se- dem Ma- ie- sta- * tis _|su- ae, qui- a|i- pse col- lo- ca- bit|
 GG c4 B2 | c2 ed cBAG | FEGF E4 |[M:2/4] D4 :: z2 AA |[M:4/4] _BAGF ED/E/ F/G/A/=B/ | ^cA d4 c2 | %71
w: te cum An- ge-|lis an- te se- dem Ma- ie-|sta- * tis _ su-|ae.|An- te|se- dem Ma- ie- sta- * * * * * *|* tis su- *|
 d8 |] %72
w: ae.|
V:2
 z8 | z8 | z8 | z8 | z8 |"^BC" z8 | z8 | z8 | z8 | z8 | z8 |"^#" z8 | z8 |"^#""^6" z8 | z8 | z8 | %16
 z8 | z8 | z8 | z8 | z8 | z8 | z8 | z8 | z8 | z8 | z8 | z8 | z8 |"^#" z8 | z8 | z8 | z8 | z8 | z8 | %35
 z8 | z8 | z8 |:[M:3/4] z6 | z6 | z6 | z6 | z6 | z6 |"^#" z6 | z6 | z6 | z6 | z6 | z6 |[M:4/4] z8 | %51
 z8 | z8 | z8 | z8 | z8 | z8 | z8 | z8 | z8 |"^#" z8 | z8 | z8 | z8 | z8 | z8 | z8 |[M:2/4] z4 :: %68
 z4 |[M:4/4] z8 |"^#""^6" z8 |"^#" z8 |] %72
V:3
 D,8 | D,4 ^C,4 | D,4 G,,4 |"^#" G,,4 E,4 |"^#" E,8 | A,,8 | D,4 E,4 | ^C,8 |"^#  5 6" D,4 B,,4 | %9
 E,4 ^C,2 ^D,2 |"^#" E,4 ^C,4 |"^#" A,,2 B,,2 ^C,4 | D,4 ^F,4 | G,4 G,,2 B,,2 | C,8 |"^6" E,4 F,4 | %16
 F,4 D,4 |"^#""^3 4 3" E,8 | A,,8 | F,,4 F,,4 | A,,2 B,,2 C,4 | C,4 G,,4 |"^#""^6" G,,4 E,,4 | %23
"^#" D,,8 |"^#" D,8- | D,8 |"^#" E,8- |"^#" E,8- |"^#" E,8- |"^#""^#" E,4- E,4 | E,6 E,2 | %31
 A,,4 A,,2 F,,2 | G,,2 A,,2 _B,,2 C,2 | F,2 E,2 D,4 | D,2 E,2 F,2 F,,2 | G,,2 E,,2 F,,2 G,,2 | %36
 C,2 ^C,2 D,2 F,2 | D,2 E,2 A,,4 |:[M:3/4] C,4 C,2 | C,2 B,,2 D,2 | G,,4 G,,2 | F,,4 F,,2 | %42
 F,,2 E,,2 G,,2 | C,4 C,2 | ^C,4 C,2 | D,2 D,2 ^C,2 | D,2 E,4 | A,,3 B,, ^C,2 | D,2 _B,,2 G,,2 | %49
 A,,4 A,,2 |[M:4/4] D,4 E,2 ^F,2 |"^#""^6" G,2 B,,2 C,2 D,2 | G,,4 G,2 ^G,2 | %53
"^#""^6" A,2 C,2 D,2 E,2 | A,,4 B,,2 ^C,2 | D,2 F,,2 G,,2 A,,2 | D,4 E,2 ^F,2 | G,2 B,,2 C,2 D,2 | %58
 G,,2 E,,2 F,,4 |"^4 3" G,,4 C,4 | G,,4 G,4 | C2 A,2 F,2 D,2 |"^#" E,4 A,,2 ^C,2 | %63
 D,2 B,,2 C,2 D,2 |"^#" G,,2 E,,2 F,,2 G,,2 | C,4 A,,2 F,,2 | _B,,2 G,,2 A,,4 |[M:2/4] D,4 :: %68
 ^F,4 |[M:4/4]"^#""^b" G,2 G,,2 A,,2 B,,2 |"^#""^#" A,,2 G,,2 A,,4 | D,8 |] %72

